X:40
T:Kusen
T:Polska efter Kus-Erik
R:polska J
A:H\"alsingland, Delsbo
Z:id:hn-jp-40
M:3/4
L:1/16
K:E
e2fg a2af g2ge | b2bg a2af gfed | e2fg a2af g2ge | gfed e2ge B4 |
e2fg a2af g2ge | b2bg a2af gfed | e2fg a2af g2ge |1 gfed e8 :|2 gfed e6 ||
K:A
|: f2 | e2d2 c4 c2Bc | d2c2 B6 f2 | e2d2 c4 c2Bc | d2c2 B4 B2c2 |
B2G2 A3G A2B2 | cBcd e2fg a3g | f2e2 d2fd c2ec |1 B2AG A6 :|2 B2AG A8 ||

